X:11002
T:Keel Row, The
R:Reel
C:Trad.
O:England, Tyneside
M:2/4
L:1/8
Q:1/4=120
K:G
d3/2c/2|"G"B2G3/2B/2|"Am"c2A3/2c/2|"G"B2G3/2B/2|"D"A3/2F/2D3/2A/2|"G"B2G3/2B/2|"Am"c2A3/2c/2|"G"B3/2G/2A3/2F/2|"G"G2:|
|:d3/2c/2|"G"B/2d3/2d3/2g/2|"Em"e2d3/2c/2|"G"B2G3/2B/2|"D"A3/2F/2D3/2c/2|"G"B/2d3/2d3/2g/2|"Em"e2d3/2c/2|"G"B3/2G/2A3/2F/2 "G"G2:|

